public/assets/star.svg

<svg width="21" height="20" viewBox="0 0 21 20" fill="none" xmlns="http://www.w3.org/2000/svg">
<path d="M19.9936 7.23411C19.9305 7.0512 19.8156 6.89054 19.663 6.77161C19.5103 6.65269 19.3264 6.58061 19.1336 6.56411L13.4436 5.73411L10.8936 0.56411C10.8117 0.395039 10.6839 0.252452 10.5247 0.152683C10.3655 0.052915 10.1815 0 9.99363 0C9.80577 0 9.62171 0.052915 9.46254 0.152683C9.30337 0.252452 9.17551 0.395039 9.09363 0.56411L6.54363 5.72411L0.85363 6.56411C0.668552 6.59042 0.494554 6.66807 0.35138 6.78827C0.208206 6.90846 0.10159 7.06638 0.0436298 7.24411C-0.00942525 7.41778 -0.0141863 7.60263 0.0298575 7.7788C0.0739014 7.95498 0.165087 8.11584 0.29363 8.24411L4.42363 12.2441L3.42363 17.9241C3.38793 18.1116 3.40662 18.3054 3.4775 18.4826C3.54838 18.6598 3.66848 18.813 3.82363 18.9241C3.97485 19.0322 4.1532 19.096 4.33868 19.1084C4.52415 19.1208 4.7094 19.0812 4.87363 18.9941L9.99363 16.3241L15.0936 19.0041C15.234 19.0833 15.3925 19.1246 15.5536 19.1241C15.7655 19.1249 15.972 19.0583 16.1436 18.9341C16.2988 18.823 16.4189 18.6698 16.4898 18.4926C16.5606 18.3154 16.5793 18.1216 16.5436 17.9341L15.5436 12.2541L19.6736 8.25411C19.818 8.13179 19.9247 7.97101 19.9814 7.79046C20.038 7.6099 20.0423 7.41698 19.9936 7.23411Z" fill="#FFD700"/>
</svg>

<svg width="21" height="20" fill="none" xmlns="http://www.w3.org/2000/svg"><path d="M19.994 7.234a1 1 0 0 0-.86-.67l-5.69-.83-2.55-5.17a1 1 0 0 0-1.8 0l-2.55 5.16-5.69.84a1 1 0 0 0-.81.68 1 1 0 0 0 .25 1l4.13 4-1 5.68a1 1 0 0 0 1.45 1.07l5.12-2.67 5.1 2.68c.14.08.299.12.46.12a1 1 0 0 0 .59-.19 1 1 0 0 0 .4-1l-1-5.68 4.13-4a1 1 0 0 0 .32-1.02Z" fill="gold"/></svg>
